X: 51
T: The Ross Memorial Hospital
R:Air
C:Phil Cunningham
M:C
L:1/4
K:D
A| f3/ g/ e3/ d/4c/4| d D F A | B3/ A/4G/4 A D |
G3 A | f3/ g/ e3/ d/4c/4 | d D F A | B G c/ d e/4f/4|
d3 A | f3/ g/ e3/ d/4c/4| d D F A | B3/ A/4G/4 A D | G3 A/G/ |
F A c/ d e/4f/4 | d D F A | B G c/ d e/4f/4| d3 ||
e/f/| g3/ f/ B3/ c/ | d3/ c/ A D | B3/ A/4G/4 A D | G3 e/f/ |
g3/ f/ B3/ c/ | d3/ c/ A D | B G c/ d e/4f/4 |  d3 e/f/|
g3/ f/ B3/ c/ | d3/ c/ A D | B3/ A/4G/4 A D | G3 A/G/ |
F A c/ d e/4f/4 | d D F A | B G c/ d e/4f/4| d3 ||

%%sep 2 1 500

